!!!SOCIAL_FUNCTION: pastime
!!!PDT:	1943
!!!LING_GROUP: Muskogean
!!!LANG: Non-Tone
Specific Region: Oklahoma, California, Mississippi, Louisiana, Texas, Alabama
!!!REG: Southeast
!!!COM: Anon.
!!!OTL: Rabbit in the Garden
!!!ODT: <1933//
!!!MPN: Lapintabeseihoke [Kills it Himself, Sidney Wesley]
!!!MLC: Philadelphia, Mississippi, United States of America
!! Song was recorded in January 1933.
!!!AGN: monody
!!!AMT: irregular
!!!RWG: Transcribed pitches, durations, and meters are only approximate.
**kern	**silbe
*ICvox	*LEnglish
*Imale	*
*clefF4	*
*k[f#c#g#d#]	*
*M2/4	*M2/4
*MM88	*MM88
=1-	=1-
8G#	O
8B	some
8B	la-
8G#	-dies
=2	=2
4B	chain
8c#	rab-
8B	-bit,
=3	=3
16G#	put-
16G#	-ting
16G#	in
16G#	the
8G#	gar-
8E	-den,
=4	=4
8F#	can't
8E	come
8E	out
8r	.
*M3/4	*M3/4
=5	=5
8G#	O
8B	some
8F#	la-
8G#	-dies
8E	chain,
8r	.
*M2/4	*M2/4
=6	=6
4G#	O
4F#	O
=7	=7
4E	O
4r	.
=8	=8
8G#	O
8B	some
8B	lad-
8G#	-dies
=9	=9
4B	chain,
8c#	rab-
8B	-bit
=10	=10
16G#	put-
16G#	-ting
16G#	in
16G#	the
8G#	gar-
8E	-den,
=11	=11
8F#	can't
8E	come
8E	out
8r	.
*M3/4	*M3/4
=12	=12
8G#	O
8B	some
8F#	la-
8G#	-dies
8E	chain
8r	.
=13	=13
4G#	O
4F#	O
8E	rab-
16E	-bit
16r	.
=14	=14
4G#	O
4F#	O
8E	O
8r	.
*M2/4	*M2/4
=15	=15
8G#	O
8B	some
8B	la-
8G#	-dies
=16	=16
8B	chain,
8r	.
8c#	rab-
8B	-bit
=17	=17
16G#	put-
16G#	-ting
16G#	in
16G#	the
8G#	gar-
8E	-den,
=18	=18
8F#	can't
8E	come
8E	out.
8r	.
*M3/4	*M3/4
=19	=19
8G#	O
8B	some
8F#	la-
8F#	-dies
8E	chain,
8r	.
*M2/4	*M2/4
=20	=20
8G#	O
8B	some
8B	la-
8G#	-dies
=21	=21
4B	chain,
8c#	rab-
8B	-bit
=22	=22
16G#	put-
16G#	-ting
16G#	in
16G#	the
8G#	gar-
8E	-den
=23	=23
8F#	can't
8E	come
8E	out.
8r	.
*M3/4	*M3/4
=24	=24
12G#	O
12B	|
12G#	some
8F#	la-
8F#	-dies
8E	chain,
8r	.
=25	=25
4G#	O
4F#	O
8E	O
8r	.
*M2/4	*M2/4
=26	=26
8G#	O
8B	some
8B	lad-
8G#	-dies
=27	=27
4B	chain
8c#	rab-
8B	-bit,
=28	=28
8G#	gar-
8E	-den,
8G#	gar-
8E	-den
*M5/8	*M5/8
=29	=29
8F#	can't
8E	come
4E	out
8r	.
8G#	I
*M3/4	*M3/4
=30	=30
8G#	bet
8G#	you
4G#	five
8G#	dol-
8E	-lars,
=31	=31
8F#	can't
8E	come
8E	out.
8r	.
4r	.
==	==
*-	*-
!!!CNT: Choctaw
!!!TXO: Choctaw
!!!OCY: United States
!!!OCL: Frances Densmore
!!!YOR: Frances Densmore, "Choctaw Music"
!!!YOR: Bulletin 136, page 179, No. 64
!!!PPR: Smithsonian Institution, Bureau of American Ethnology
!!!PPR: Government Printing Office
!!!PDT: 1943
!!!PPP: Washington, DC, United States of America
!!!YEC: Electronic Copyright 2000 David Huron
!!!YER: August 2000
!!!YEN: United States of America
!!!ENC: David Huron
!!!RDT: August 30, 2000
!!!EEV: Release 1.0
!!!AIN: vox
